X: 101
T: A Birthday
R: polka
M: 2/4
K: Gmajor
dG ge|de/d/ cB|AD Ad|BG GD|
BG ge|de/d/ cB|AD AB|1 G3 D:|2 (G2 G/)A/B/A/||
ce ce|dd/c/ dd/e/|ff/e/ fa|g2 ee|
ce ce|dd/c/ dd/e/|fa/g/ fB|1 c3 c/G/:|2 c2 Ge||
dG ge|de/d/ cB|AD Ad|BG GD|
BG ge|de/d/ cB|AD AB|1 G3 D:|2 (G2 G/)A/B/A/||

